!!!OTL: Divertimento in B, 2. Satz, KV 137/02
!!!system-decoration: [(s1,s2,s3,s4)]
**kern	**kern	**kern	**kern	**kern	**kern	**kern	**kern	**kern	**kern	**kern	**kern	**kern	**kern	**kern	**kern
*part4	*part4	*part4	*part4	*part3	*part3	*part3	*part3	*part2	*part2	*part2	*part2	*part1	*part1	*part1	*part1
*staff16	*staff15	*staff14	*staff13	*staff12	*staff11	*staff10	*staff9	*staff8	*staff7	*staff6	*staff5	*staff4	*staff3	*staff2	*staff1
*I"Violoncello e Basso	*	*	*	*I"Viola	*	*	*	*I"Violino II	*	*	*	*I"Violino I	*	*	*
*clefF4	*clefC3	*clefG2	*clefG2
*k[b-e-]	*k[b-e-]	*k[b-e-]	*k[b-e-]
*M4/4	*M4/4	*M4/4	*M4/4
8BB-yL	8B-yL	2dd 2f 2B-y	2bb-y 2b-y 2d
8BB-y	8B-y	.	.
8BB-y	8B-y	.	.
8BB-yJ	8B-yJ	.	.
8BB-yL	8B-yL	4.b-y	4.dd
8BB-y	8B-y	.	.
8BB-y	8B-y	.	.
8BB-yJ	8B-yJ	8cc	8ee-y
=2	=2	=2	=2
8BB-yL	8B-yL	(8cc#L	(8eenL
8BB-y	8B-y	8ddJ)	8ffJ)
8BB-y	8B-y	4.dd	4.ff
8BB-yJ	8B-yJ	.	.
8BB-yL	8B-yL	.	.
8BB-y	8B-y	8ffL	8bb-yL
8BB-y	8B-y	8b-y	8dd
8BB-yJ	8B-yJ	8ccnJ	8ee-J
=3	=3	=3	=3
8BB-yL	8B-yL	(8cc#L	(8eenL
8BB-y	8B-y	8ddJ)	8ffJ)
8BB-y	8B-y	4dd	4ff
8BB-yJ	8B-yJ	.	.
8DL	8dL	8fL	16bb-yL
.	.	.	16aa
8D	8d	8f	16gg
.	.	.	16ffJ
8D	8d	8f	16ee-L
.	.	.	16dd
8DJ	8dJ	8fJ	16cc
.	.	.	16b-yJ
=4	=4	=4	=4
8E-yL	8e-yL	8gL	(4bn
8E-y	8e-y	8g	.
8E-y	8e-y	8g	8ccL)
8E-yJ	8e-yJ	8gJ	8ee-yJ
8FL	8e-yL	8cL	(4b-
8F	8e-y	8c	.
8F	8e-y	8c	8aL)
8FJ	8e-yJ	8cJ	8ccJ
!!LO:LB
=5	=5	=5	=5
8GL	8B-yL	8B-yL	(4e-y
8G	8B-y	8B-y	.
8G	8B-y	8B-y	8d)
8GJ	8B-yJ	8B-yJ	8r
8DL	8dL	8fL	16bb-yL
.	.	.	16aa
8D	8d	8f	16gg
.	.	.	16ffJ
8D	8d	8f	16ee-yL
.	.	.	16dd
8DJ	8dJ	8fJ	16cc
.	.	.	16b-yJ
=6	=6	=6	=6
8E-yL	8e-yL	8gL	(4bn
8E-y	8e-y	8g	.
8E-y	8e-y	8g	8ccL)
8E-yJ	8e-yJ	8gJ	8ggJ
8FL	8FL	8e-yL 8c	(4b-
8F	8F	8e-y 8c	.
8F	8F	8e-y 8c	8aL)
8FJ	8cJ	8aJ	8ee-yJ
=7	=7	=7	=7
.	.	.	(<16qee-y
8BB-yL	4B-y	4b-y	8ddL)
8BB-y	.	.	16cc
.	.	.	16b-yJ
8BB-y	(16B-yL	(16dL	4b-y
.	16c	16e-y	.
8BB-yJ	16d	16f	.
.	16cJ	16e-yJ	.
8BB-yL	8B-yL)	8dL)	8r
8BB-y	8B-yJ	8dJ	8b-yL
8BB-y	4B-y	4d	(8bb-y
8BB-yJ	.	.	8ggJ)
=8	=8	=8	=8
8BB-yL	4G	8c	(4ff
8BB-y	.	4cc	.
8BB-y	4g	.	(8.eenL)
8BB-yJ	.	4cc	.
.	.	.	32ff
.	.	.	32ggJ)
8AAL	4a	.	(16ffL
.	.	.	16gg
8AA	.	4cc	16aa)
.	.	.	16ggJ
8AA	[4f	.	16ffL
.	.	.	16ee
8AAJ	.	8c	16dd
.	.	.	16ccJ
!!LO:LB
=9	=9	=9	=9
8GGL	4f]	(4.d	(8.bnL
8GG	.	.	.
.	.	.	16ccJ)
8FF	4.g	.	(2b-
8FFJ	.	16enL	.
.	.	16fJ	.
8EEnL	.	4g)	.
8EE	8en	.	.
8FF	4c	4f	4a)
8FFJ	.	.	.
=10	=10	=10	=10
8BB-yL	8dL	4g	4g
8BB-y	8d	.	.
8BB-y	8d	4r	2gg
8BB-yJ	8dJ	.	.
8BB-yL	8dL	2r	.
8BB-y	8d	.	.
8BBn	8d	.	4ff
8BBJ	8dJ	.	.
=11	=11	=11	=11
.	.	.	(<16qff
8CL	4G	8r	4een)
8C	.	(8ccL	.
8C	4r	8een	4r
8CJ	.	8ggJ)	.
8CL	2r	(8bb-yL	2r
8C	.	8aa	.
8C	.	8gg	.
8CJ	.	8ffJ)	.
=12	=12	=12	=12
8BBL	2r	(16eenL	(8.cccL
.	.	16ff	.
8BB-y	.	16gg	.
.	.	16ffJ)	16dddJ
8BB-y	.	4.ee	4ccc)
8BB-yJ	.	.	.
8BB-yL	(8.cL	.	2r
8BB-y	.	8ggL	.
.	16dJ	.	.
8BB-y	4c)	8bb-y	.
8BB-yJ	.	8ggJ	.
!!LO:LB
=13	=13	=13	=13
8AAL	2r	(16ffL	(8.cccL
.	.	16gg	.
8AA	.	16aa	.
.	.	16ggJ)	16dddJ)
8AA	.	4.ff	4ccc
8AAJ	.	.	.
8AAL	(8.cL	.	2r
8AA	.	8aaL	.
.	16dJ	.	.
8AA	8cL)	8ccc	.
8AAJ	8fJ	8aaJ	.
=14	=14	=14	=14
4EEn	8gL	8bb-yL	1r
.	8f	8aa	.
4r	8en	8gg	.
.	8dJ	8ffJ	.
2r	8cL	8eenL	.
.	8B-y	8dd	.
.	8A	8cc	.
.	8GJ	8b-yJ	.
=15	=15	=15	=15
8r	4F	8aL	4r
8FL	.	8a	.
8F	4r	8a	2ff
8FJ	.	8aJ	.
(8FL	2r	(8aL	.
8G)	.	8b-y)	.
8G	.	8b-y	[4ff
8GJ	.	8b-yJ	.
=16	=16	=16	=16
(8GL	1r	(8bnL	4ff]
8A)	.	8cc)	.
(8A	.	(8cc	2ff
8B-yJ)	.	8ddJ)	.
(8B-yL	.	(8ddL	.
8cJ)	.	8ee-J)	.
(<16qd	.	.	.
.	.	(<16qff	.
8cL)	.	8ee-yL)	[4ff
16B-y	.	16dd	.
16AJ	.	16ccJ	.
=17	=17	=17	=17
4B-y	8r	8ddL	4ff]
.	8B-yL	8ff	.
4r	8B-y	8ff	[4ddd
.	8B-yJ	8ffJ	.
2r	4B-y	4ff	8dddL]
.	.	.	8bb-y
.	4r	4r	8ff
.	.	.	8ddJ
=18	=18	=18	=18
2r	2r	1r	8b-yL
.	.	.	8f
.	.	.	8d
.	.	.	8B-yJ
8BBnL	8FL	.	2A-
8BB	8F	.	.
8BB	8F	.	.
8BBJ	8FJ	.	.
=19	=19	=19	=19
8CL	4F	16r	4An
.	.	16ffL	.
8C	.	16ff	.
.	.	16ffJ	.
8C	16aL	16ffL	2ccc
.	16a	16ff	.
8CJ	16a	16ff	.
.	16aJ	16ffJ	.
8CL	16aL	16ffL	.
.	16a	16ff	.
8C	16a	16ff	.
.	16aJ	16ffJ	.
8C	16aL	16ffL	(16bb-yL
.	16a	16ff	16aa
8CJ	16a	16ff	16gg
.	16aJ	16ffJ	16ffJ)
=20	=20	=20	=20
8CL	16b-yL	16ffL	1ggT
.	16b-y	16ff	.
8C	16b-y	16ff	.
.	16b-yJ	16ffJ	.
8C	16b-yL	16ffL	.
.	16b-y	16ff	.
8CJ	16b-y	16ff	.
.	16b-yJ	16ffJ	.
8CL	16b-yL	16eenL	.
.	16b-y	16ee	.
8C	16b-y	16ee	.
.	16b-yJ	16eeJ	.
8C	16b-yL	16eeL	.
.	16b-y	16ee	.
8CJ	16b-y	16ee	.
.	16b-yJ	16eeJ	.
!!LO:LB
=21	=21	=21	=21
4F	4a	8ffL	8ffL
.	.	8a	8cc
4r	4r	8a	8cc
.	.	8aJ	8ccJ
2r	2r	(8.b-yL	(8.ddL
.	.	16cc	16een
.	.	8dd)	8ff)
.	.	8ccJ	8eeJ
=22	=22	=22	=22
2r	2r	8b-yL	8ddL
.	.	8a	8cc
.	.	8g	8b-y
.	.	8fJ	8aJ
4C	4c	4en	4g
.	.	(<16qaa	.
.	.	.	(<16qccc
4CC	4B-y	8ggL)	8bb-yL)
.	.	16ff	16aa
.	.	16eenJ	16ggJ
=23	=23	=23	=23
4FF	4A	8ffL	8ffL
.	.	8a	8cc
4r	4r	8a	8cc
.	.	8aJ	8ccJ
2r	2r	(8.b-yL	(8.ddL
.	.	16cc	16een
.	.	8dd)	8ff)
.	.	8ccJ	8eeJ
=24	=24	=24	=24
2r	2r	8b-yL	8ddL
.	.	8a	8cc
.	.	8g	8b-y
.	.	8fJ	8aJ
4C	4c	4en	4g
.	.	(<16qaa	.
.	.	.	(<16qccc
4CC	4B-y	8ggL)	8bb-yL)
.	.	16ff	16aa
.	.	16eenJ	16ggJ
=25	=25	=25	=25
4FF	4A	4ff	4ff
4FF	4c	4cc 4f	4ff 4a
4FF	4f	4cc 4f	4ff 4a
4r	4r	4r	4r
!!LO:LB
=26:|!	=26:|!	=26:|!	=26:|!
4F	8FL	(8dL	2.ff
.	8F	8f	.
4r	8F	8d	.
.	8FJ	8fJ)	.
2r	8FL	(8dL	.
.	8F	8f	.
.	8F	8d	4bb-y
.	8FJ	8fJ)	.
=27	=27	=27	=27
4FF	8FL	(8B-yL	4.dd
.	8F	8f	.
4r	8F	8B-y	.
.	8FJ	8dJ)	8ff
2r	8FL	(8cL	4ee-y
.	8F	8f	.
.	8F	8c	4r
.	8FJ	8B-yJ)	.
=28	=28	=28	=28
4F	8FL	(8AL	2.ee-y
.	8F	8c	.
4r	8F	8f	.
.	8FJ	8cJ)	.
2r	8FL	(8AL	.
.	8F	8c	.
.	8F	8f	4ccc
.	8FJ	8aJ)	.
=29	=29	=29	=29
4FF	8FL	(8fL	4.cc
.	8F	8a	.
4r	8F	8A	.
.	8FJ	8fJ)	8ee-y
2r	8FL	(8B-yL	4dd
.	8F	8f	.
.	8F	8d	8r
.	8FJ	8B-yJ)	8dd
=30	=30	=30	=30
(8E-yL	8FL	(8AL	(8ccL
8D	8F	8B-y)	8dd)
8C	8F	(8c	(8ee-y
8BB-yJ)	8FJ	8e-yJ)	8ggJ)
4AA	8FL	(8e-yL	(8ggL
.	8F	8d)	8ff)
4BB-y	8F	(8c	(8ee-y
.	8FJ	8B-yJ)	8ddJ)
!!LO:LB
=31	=31	=31	=31
4FF	8FL	(4B-y	(4dd
.	8F	.	.
4r	8F	4A)	4cc)
.	8FJ	.	.
4F	4F	2r	2r
4E-y	4r	.	.
=32	=32	=32	=32
4D	4cc 4d	4ff# 4a 4d	4aa 4cc 4d
4r	4r	4r	4r
2r	2r	(8.aLT	(8.ccLT
.	.	32g	32b-y
.	.	32aJ)	32ccJ)
.	.	8b-yL	8ddL
.	.	8aJ	8ccJ
=33	=33	=33	=33
1r	8g	8g	8b-y
.	8r	8r	8r
.	8d	8b-y	8gg
.	8r	8r	8r
.	8B-y	8gg	8bb-y
.	8r	8r	8r
.	8G	4r	4r
.	8r	.	.
=34	=34	=34	=34
4D	4f 4B-y	4ffn 4b-y 4d	4aa- 4b-y 4d
4r	4r	4r	4r
2r	2r	(8.fLT	(8.a-LT
.	.	32e-y	32g
.	.	32fJ)	32a-yJ)
.	.	8gL	8b-yL
.	.	8fJ	8a-yJ
=35	=35	=35	=35
1r	8e-y	8e-y	8g
.	8r	8r	8r
.	8B-y	8g	8ee-y
.	8r	8r	8r
.	8G	8b-y	8gg
.	8r	8r	8r
.	8E-y	4r	4r
.	8r	.	.
=36	=36	=36	=36
4BBn	4g 4G	4ff 4dd 4g	4ddd 4ff 4g
4r	4r	4r	4r
2BB	[2g	(8.ddLT	(8.ffLT
.	.	32cc	32ee-y
.	.	32ddJ)	32ffJ)
.	.	8ee-yL	8ggL
.	.	8ddJ	8ffJ
=37	=37	=37	=37
2C	(4g_	(8ddL	(8ffL
.	.	8cc)	8ee-y)
.	4an	8cc	8ee-y
.	.	8ccJ	8ee-yJ
2D	4b-y	(8ccL	(8ee-yL
.	.	8b-)	8dd)
.	4f)	8b-y	8dd
.	.	8b-yJ	8ddJ
=38	=38	=38	=38
8E-yL	4g	8gL	(8ddL
8E-y	.	8g	8ccJ)
8E-y	8.e-yL	8g	2cc
8E-yJ	.	8gJ	.
.	16dJ	.	.
8EnL	8cL	8gL	.
8E	8c	8g	.
8E	8c	8g	4b-yT
8EJ	8cJ	8gJ	.
=39	=39	=39	=39
4F	4c	4f	4ff 4a
4F	4f	(16aL	(16ccL
.	.	16f)	16a)
.	.	(16a	(16cc
.	.	16fJ)	16aJ)
4FF	4F	4A	4f
4r	4r	4r	4r
=40	=40	=40	=40
8BB-L	8B-yL	2dd 2f 2B-y	2bb-y 2b-y 2d
8BB-y	8B-y	.	.
8BB-y	8B-y	.	.
8BB-yJ	8B-yJ	.	.
8BB-yL	8B-yL	4.b-y	4.dd
8BB-y	8B-y	.	.
8BB-y	8B-y	.	.
8BB-yJ	8B-yJ	8cc	8ee-y
!!LO:LB
=41	=41	=41	=41
8BB-yL	8B-yL	(8cc#L	(8eenL
8BB-y	8B-y	8ddJ)	8ffJ)
8BB-y	8B-y	4.dd	4.ff
8BB-yJ	8B-yJ	.	.
8BB-yL	8B-yL	.	.
8BB-y	8B-y	8ffL	8bb-yL
8BB-y	8B-y	8b-y	8dd
8BB-yJ	8B-yJ	8ccnJ	8ee-J
=42	=42	=42	=42
8BB-yL	8B-yL	(8cc#L	(8eenL
8BB-y	8B-y	8ddJ)	8ffJ)
8BB-y	8B-y	4dd	4ff
8BB-yJ	8B-yJ	.	.
8DL	8dL	8fL	16bb-yL
.	.	.	16aa
8D	8d	8f	16gg
.	.	.	16ffJ
8D	8d	8f	16ee-L
.	.	.	16dd
8DJ	8dJ	8fJ	16cc
.	.	.	16b-yJ
=43	=43	=43	=43
8E-yL	8e-yL	8gL	(4bn
8E-y	8e-y	8g	.
8E-y	8e-y	8g	8ccL)
8E-yJ	8e-yJ	8gJ	8ee-yJ
8FL	8e-yL	8cL	(4b-
8F	8e-y	8c	.
8F	8e-y	8c	8aL)
8FJ	8e-yJ	8cJ	8ccJ
=44	=44	=44	=44
8GL	8B-yL	8B-yL	(4e-y
8G	8B-y	8B-y	.
8G	8B-y	8B-y	8d)
8GJ	8B-yJ	8B-yJ	8r
8DL	8dL	8fL	16bb-yL
.	.	.	16aa
8D	8d	8f	16gg
.	.	.	16ffJ
8D	8d	8f	16ee-yL
.	.	.	16dd
8DJ	8dJ	8fJ	16cc
.	.	.	16b-yJ
!!LO:LB
=45	=45	=45	=45
8E-yL	8e-yL	8gL	(4bn
8E-y	8e-y	8g	.
8E-y	8e-y	8g	8ccL)
8E-yJ	8e-yJ	8gJ	8ggJ
8FL	8FL	8e-yL 8c	(4b-
8F	8F	8e-y 8c	.
8F	8F	8e-y 8c	8aL)
8FJ	8cJ	8aJ	8ee-yJ
=46	=46	=46	=46
.	.	.	(<16qee-y
8BB-yL	4B-y	4b-y	8ddL)
8BB-y	.	.	16cc
.	.	.	16b-yJ
8BB-y	(16B-yL	(16dL	4b-y
.	16c	16e-y	.
8BB-yJ	16d	16f	.
.	16cJ	16e-yJ	.
8BB-yL	8B-yL)	8dL)	8r
8BB-y	8B-yJ	8dJ	8b-yL
8BB-y	4B-y	4d	(8aa-
8BB-yJ	.	.	8ffJ)
=47	=47	=47	=47
8AA-L	1B-y	4r	(4ee-y
8AA-y	.	.	.
8AA-y	.	4f	(8.ddL)
8AA-yJ	.	.	.
.	.	.	32ee-y
.	.	.	32ffJ)
8GGL	.	4.b-y	(16ee-yL
.	.	.	16ff
8GG	.	.	16gg)
.	.	.	16ffJ
8GG	.	.	16ee-yL
.	.	.	16dd
8GGJ	.	8g	16cc
.	.	.	16b-yJ
=48	=48	=48	=48
8FFL	4f	4c	(8.anL
8FF	.	.	.
.	.	.	32cc
.	.	.	32b-yJ)
8F	2c	2f	(2a
8FJ	.	.	.
8E-yL	.	.	.
8E-y	.	.	.
8D	[4B-y	[4f	4a-)
8DJ	.	.	.
!!LO:LB
=49	=49	=49	=49
8E-yL	8B-yL]	4f]	4g
8E-y	8Bn	.	.
8E-y	8c	8.e-yL	2gg
8E-yJ	8dJ	.	.
.	.	16dJ	.
8E-yL	4e-y	4c	.
8E-y	.	.	.
(8E-y	4c	4g	4b-y
8EnJ)	.	.	.
=50	=50	=50	=50
4F	4c	8fL	4an
.	.	(8f	.
4r	4r	8a	4r
.	.	8ccJ)	.
2r	2r	(8ee-yL	2r
.	.	8dd	.
.	.	8cc	.
.	.	8b-yJ)	.
=51	=51	=51	=51
8E-L	2r	(16aL	(8.ffL
.	.	16b-y	.
8E-y	.	16cc	.
.	.	16b-yJ)	16ggJ
8E-y	.	4.a	4ff)
8E-yJ	.	.	.
8E-yL	(8.fL	.	2r
8E-y	.	8ccL	.
.	16gJ	.	.
8E-y	4f)	8ee-y	.
8E-yJ	.	8ccJ	.
=52	=52	=52	=52
8DL	2r	(16b-yL	(8.ffL
.	.	16cc	.
8D	.	16dd	.
.	.	16ccJ)	16ggJ)
8D	.	4.b-y	4ff
8DJ	.	.	.
8DL	(8.fL	.	2r
8D	.	8ddL	.
.	16gJ	.	.
8D	8fL)	8ff	.
8DJ	8b-yJ	8ddJ	.
=53	=53	=53	=53
4AA	8ccL	8ee-yL	1r
.	8b-y	8dd	.
4r	8a	8cc	.
.	8gJ	8b-yJ	.
2r	8fL	8aL	.
.	8e-y	8g	.
.	8d	8f	.
.	8cJ	8e-yJ	.
=54	=54	=54	=54
8r	4B-y	(8dL	4r
8BB-yL	.	8dd)	.
8BB-y	4r	8dd	2bb-y
8BB-yJ	.	8ddJ	.
(8BB-yL	2r	(8ddL	.
8C)	.	8ee-y)	.
8C	.	8ee-y	[4bb-y
8CJ	.	8ee-yJ	.
=55	=55	=55	=55
(8CL	1r	(8eenL	4bb-y]
8D)	.	8ff)	.
(8D	.	(8ff	2bb-y
8E-yJ)	.	8ggJ)	.
(8E-yL	.	(8ggL	.
8FJ)	.	8aa-J)	.
(<16qG	.	.	.
.	.	(<16qbb-y	.
8FL)	.	8aa-yL)	[4bb-y
16E-y	.	16gg	.
16DJ	.	16ffJ	.
=56	=56	=56	=56
8E-yL	8r	8ggL	4bb-y]
8EE-y	8E-yL	8b-y	.
8EE-y	8E-y	8b-y	[4gg
8EE-yJ	8E-yJ	8b-yJ	.
4EE-y	4E-y	4b-y	8ggL]
.	.	.	8ee-y
4r	4r	4r	8b-y
.	.	.	8gJ
!!LO:LB
=57	=57	=57	=57
2r	2r	2r	8ee-yL
.	.	.	8b-y
.	.	.	8g
.	.	.	8e-yJ
8EEnL	8GL	8B-yL	2d-
8EE	8G	8B-y	.
8EE	8G	8B-y	.
8EEJ	8GJ	8B-yJ	.
=58	=58	=58	=58
8FFL	4F	4B-y	4dn
8FF	.	.	.
8FF	16dL	16b-yL	2ff
.	16d	16b-y	.
8FFJ	16d	16b-y	.
.	16dJ	16b-yJ	.
8FFL	16dL	16b-yL	.
.	16d	16b-y	.
8FF	16d	16b-y	.
.	16dJ	16b-yJ	.
8FF	16dL	16b-yL	(16ee-yL
.	16d	16b-y	16dd
8FFJ	16d	16b-y	16cc
.	16dJ	16b-yJ	16b-yJ)
=59	=59	=59	=59
8FFL	16e-yL	16b-yL	1ccT
.	16e-y	16b-y	.
8FF	16e-y	16b-y	.
.	16e-yJ	16b-yJ	.
8FF	16e-yL	16b-yL	.
.	16e-y	16b-y	.
8FFJ	16e-y	16b-y	.
.	16e-yJ	16b-yJ	.
8FFL	16e-yL	16aL	.
.	16e-y	16a	.
8FF	16e-y	16a	.
.	16e-yJ	16aJ	.
8FF	16e-yL	16aL	.
.	16e-y	16a	.
8FFJ	16e-y	16a	.
.	16e-yJ	16aJ	.
!!LO:LB
=60	=60	=60	=60
4BB-y	4d	8b-yL	8b-yL
.	.	8dd	8ff
4r	4r	8dd	8ff
.	.	8ddJ	8ffJ
2r	2r	(8.ee-yL	(8.ggL
.	.	16ff	16aa
.	.	8gg)	8bb-y)
.	.	8ffJ	8aaJ
=61	=61	=61	=61
2r	2r	8ee-yL	8ggL
.	.	8dd	8ff
.	.	8cc	8ee-y
.	.	8b-yJ	8ddJ
4F	4f	4a	4cc
.	.	(<16qdd	.
.	.	.	(<16qff
4FF	4e-y	8ccL)	8ee-yL)
.	.	16b-y	16dd
.	.	16aJ	16ccJ
=62	=62	=62	=62
4BB-y	4d	8b-yL	8b-yL
.	.	8dd	8ff
4r	4r	8dd	8ff
.	.	8ddJ	8ffJ
2r	2r	(8.ee-yL	(8.ggL
.	.	16ff	16aa
.	.	8gg)	8bb-y)
.	.	8ffJ	8aaJ
=63	=63	=63	=63
2r	2r	8ee-yL	8ggL
.	.	8dd	8ff
.	.	8cc	8ee-y
.	.	8b-yJ	8ddJ
4F	4f	4a	4cc
.	.	(<16qdd	.
.	.	.	(<16qff
4FF	4e-y	8ccL)	8ee-yL)
.	.	16b-y	16dd
.	.	16aJ	16ccJ
=64	=64	=64	=64
4BB-y	4d	4b-y	4b-y
4BB-y	4B-y	4dd 4f 4B-y	4bb-y 4b-y 4d
4BB-y	4B-y	4dd 4f 4B-y	4bb-y 4b-y 4d
4r	4r	4r	4r
=:|!	=:|!	=:|!	=:|!
*-	*-	*-	*-
!!!RDF**kern: < = below
